picto/family-zone-framed.svg

<svg class="color-immutable" width="30" height="30" viewBox="0 0 30 30" fill="none" xmlns="http://www.w3.org/2000/svg"><path d="M29.9999 0H0V29.9999H29.9999V0Z" fill="#2D327D"/><path d="M25.4999 2.99999C26.3249 2.99999 26.9999 3.67499 26.9999 4.49999V25.4999C26.9999 26.3249 26.3249 26.9999 25.4999 26.9999H4.49999C3.67499 26.9999 2.99999 26.3249 2.99999 25.4999V4.49999C2.99999 3.67499 3.67499 2.99999 4.49999 2.99999H25.4999ZM25.4999 2.62499H4.49999C3.46612 2.62499 2.62499 3.46612 2.62499 4.49999V25.4999C2.62499 26.5338 3.46612 27.3749 4.49999 27.3749H25.4999C26.5338 27.3749 27.3749 26.5338 27.3749 25.4999V4.49999C27.3749 3.46612 26.5338 2.62499 25.4999 2.62499Z" fill="white"/><path d="M6.41137 23.9999H23.5885C23.8587 23.9999 24.0414 23.7222 23.9328 23.4747C22.9842 21.3122 21.2731 19.5608 19.1401 18.5587C19.0307 18.5073 18.9035 18.5154 18.7977 18.574C17.6856 19.1904 16.3866 19.5452 14.9999 19.5452C13.6132 19.5452 12.3142 19.1904 11.2021 18.574C11.0963 18.5154 10.9691 18.5072 10.8597 18.5587C8.72669 19.5608 7.01557 21.3122 6.06704 23.4747C5.95859 23.7222 6.14114 23.9999 6.41137 23.9999Z" fill="white"/><path d="M24 8.99998C24 7.34316 22.6568 5.99999 21 5.99999C20.0225 5.99999 19.1546 6.46769 18.6069 7.19121C17.5565 6.59789 16.3215 6.25574 15 6.25574C13.6784 6.25574 12.4435 6.59789 11.3931 7.19121C10.8454 6.46769 9.97738 5.99999 8.99998 5.99999C7.34316 5.99999 5.99999 7.34316 5.99999 8.99998C5.99999 10.3543 6.89751 11.4985 8.12998 11.8714C8.09683 12.1249 8.07936 12.3829 8.07936 12.6447C8.07936 16.1732 11.1778 19.0337 15 19.0337C18.8221 19.0337 21.9205 16.1732 21.9205 12.6447C21.9205 12.3828 21.903 12.1249 21.8699 11.8714C23.1024 11.4985 24 10.3543 24 8.99998ZM12.0629 13.9737C11.6225 13.9737 11.2655 13.6167 11.2655 13.1763C11.2655 12.7359 11.6225 12.3789 12.0629 12.3789C12.5033 12.3789 12.8603 12.7359 12.8603 13.1763C12.8602 13.6167 12.5032 13.9737 12.0629 13.9737ZM15.7479 17.0253C15.4696 17.0253 15.2037 16.9613 15 16.8471C14.7962 16.9612 14.5303 17.0253 14.2521 17.0253C13.6146 17.0253 13.1201 16.5597 13.1201 16.1592C13.1201 16.0674 13.1945 15.993 13.2862 15.993C13.3779 15.993 13.4523 16.0674 13.4523 16.1592C13.4523 16.3692 13.7958 16.6931 14.2521 16.6931C14.4702 16.6931 14.6808 16.6437 14.8338 16.559V15.5967C14.3994 15.5406 14.0697 15.2697 14.0697 14.9433C14.0697 14.5764 14.4861 14.2788 15 14.2788C15.5137 14.2788 15.9303 14.5764 15.9303 14.9433C15.9303 15.2697 15.6005 15.5406 15.1661 15.5967V16.559C15.3191 16.6437 15.5297 16.6931 15.7479 16.6931C16.2042 16.6931 16.5477 16.3692 16.5477 16.1592C16.5477 16.0674 16.622 15.993 16.7138 15.993C16.8056 15.993 16.8799 16.0674 16.8799 16.1592C16.8798 16.5597 16.3854 17.0253 15.7479 17.0253ZM17.937 13.9737C17.4966 13.9737 17.1396 13.6167 17.1396 13.1763C17.1396 12.7359 17.4966 12.3789 17.937 12.3789C18.3774 12.3789 18.7344 12.7359 18.7344 13.1763C18.7344 13.6167 18.3774 13.9737 17.937 13.9737Z" fill="white"/></svg>

<svg class="color-immutable" width="30" height="30" viewBox="0 0 30 30" fill="none" xmlns="http://www.w3.org/2000/svg"><path d="M30 0H0v30h30V0Z" fill="#2D327D"/><path d="M25.5 3c.825 0 1.5.675 1.5 1.5v21c0 .825-.675 1.5-1.5 1.5h-21c-.825 0-1.5-.675-1.5-1.5v-21C3 3.675 3.675 3 4.5 3h21Zm0-.375h-21A1.877 1.877 0 0 0 2.625 4.5v21c0 1.034.841 1.875 1.875 1.875h21a1.877 1.877 0 0 0 1.875-1.875v-21A1.877 1.877 0 0 0 25.5 2.625Z" fill="#fff"/><path d="M6.411 24h17.177c.27 0 .453-.278.345-.525a9.787 9.787 0 0 0-4.793-4.916.376.376 0 0 0-.342.015 7.821 7.821 0 0 1-3.798.971 7.821 7.821 0 0 1-3.798-.971.376.376 0 0 0-.342-.015 9.787 9.787 0 0 0-4.793 4.916.375.375 0 0 0 .344.525Z" fill="#fff"/><path d="M24 9a3 3 0 0 0-5.393-1.809A7.322 7.322 0 0 0 15 6.256a7.321 7.321 0 0 0-3.607.935 3 3 0 1 0-3.263 4.68 5.96 5.96 0 0 0-.05.774c0 3.528 3.098 6.389 6.92 6.389s6.92-2.86 6.92-6.39c0-.261-.017-.52-.05-.773A3 3 0 0 0 24 9Zm-11.937 4.974a.797.797 0 1 1 0-1.595.797.797 0 0 1 0 1.595Zm3.685 3.051c-.278 0-.544-.064-.748-.178-.204.114-.47.178-.748.178-.637 0-1.132-.465-1.132-.866a.166.166 0 1 1 .332 0c0 .21.344.534.8.534.218 0 .429-.05.582-.134v-.962c-.435-.056-.764-.327-.764-.654 0-.367.416-.664.93-.664s.93.297.93.664c0 .327-.33.598-.764.654v.962c.153.085.364.134.582.134.456 0 .8-.324.8-.534a.166.166 0 1 1 .332 0c0 .4-.495.866-1.132.866Zm2.189-3.051a.797.797 0 1 1 0-1.595.797.797 0 0 1 0 1.595Z" fill="#fff"/></svg>
